src/lib/packages/icons/src/assets/line/document.svg

<svg xmlns="http://www.w3.org/2000/svg" width="24" height="24" fill="none"><path fill="currentColor" d="M13.75 12a.75.75 0 0 1-.75.75H7a.75.75 0 0 1 0-1.5h6a.75.75 0 0 1 .75.75ZM7 8.75h3a.75.75 0 0 0 0-1.5H7a.75.75 0 0 0 0 1.5Zm6 6.5H7a.75.75 0 0 0 0 1.5h6a.75.75 0 0 0 0-1.5Zm8.75-3.75V19A2.752 2.752 0 0 1 19 21.75H6c-2.418 0-3.75-1.332-3.75-3.75V6c0-2.418 1.332-3.75 3.75-3.75h8c2.418 0 3.75 1.332 3.75 3.75v3.25h1.75c1.24 0 2.25 1.009 2.25 2.25Zm-5.199 8.75A2.736 2.736 0 0 1 16.25 19V6c0-1.577-.673-2.25-2.25-2.25H6c-1.577 0-2.25.673-2.25 2.25v12c0 1.577.673 2.25 2.25 2.25h10.551Zm3.699-8.75a.75.75 0 0 0-.75-.75h-1.75V19c0 .689.561 1.25 1.25 1.25s1.25-.561 1.25-1.25v-7.5Z"/></svg>

<svg width="24" height="24" viewBox="0 0 24 24" fill="none" xmlns="http://www.w3.org/2000/svg">
<path d="M13.75 12C13.75 12.414 13.414 12.75 13 12.75H7C6.586 12.75 6.25 12.414 6.25 12C6.25 11.586 6.586 11.25 7 11.25H13C13.414 11.25 13.75 11.586 13.75 12ZM7 8.75H10C10.414 8.75 10.75 8.414 10.75 8C10.75 7.586 10.414 7.25 10 7.25H7C6.586 7.25 6.25 7.586 6.25 8C6.25 8.414 6.586 8.75 7 8.75ZM13 15.25H7C6.586 15.25 6.25 15.586 6.25 16C6.25 16.414 6.586 16.75 7 16.75H13C13.414 16.75 13.75 16.414 13.75 16C13.75 15.586 13.414 15.25 13 15.25ZM21.75 11.5V19C21.75 20.517 20.517 21.75 19 21.75H6C3.582 21.75 2.25 20.418 2.25 18V6C2.25 3.582 3.582 2.25 6 2.25H14C16.418 2.25 17.75 3.582 17.75 6V9.25H19.5C20.74 9.25 21.75 10.259 21.75 11.5ZM16.551 20.25C16.359 19.875 16.25 19.45 16.25 19V6C16.25 4.423 15.577 3.75 14 3.75H6C4.423 3.75 3.75 4.423 3.75 6V18C3.75 19.577 4.423 20.25 6 20.25H16.551ZM20.25 11.5C20.25 11.086 19.913 10.75 19.5 10.75H17.75V19C17.75 19.689 18.311 20.25 19 20.25C19.689 20.25 20.25 19.689 20.25 19V11.5Z" fill="currentColor"/>
</svg>
